icons/ruby-16.svg

<svg xmlns="http://www.w3.org/2000/svg" width="16" height="16" viewBox="0 0 16 16"><path fill-rule="evenodd" d="M3.637 2.291A.75.75 0 014.23 2h7.54a.75.75 0 01.593.291l3.48 4.5a.75.75 0 01-.072.999l-7.25 7a.75.75 0 01-1.042 0l-7.25-7a.75.75 0 01-.072-.999l3.48-4.5zM4.598 3.5L1.754 7.177 8 13.207l6.246-6.03L11.402 3.5H4.598z"/></svg>

<svg xmlns="http://www.w3.org/2000/svg" width="16" height="16" viewBox="0 0 16 16">
  <defs/>
  <path d="M3.637,2.291 C3.779,2.107 3.998,2 4.23,2 L11.77,2 C12.002,2 12.221,2.107 12.363,2.291 L15.843,6.791 C16.077,7.094 16.046,7.524 15.771,7.79 L8.521,14.79 C8.23,15.071 7.77,15.071 7.479,14.79 L0.229,7.79 C-0.046,7.524 -0.077,7.094 0.157,6.791 Z M4.598,3.5 L1.754,7.177 L8,13.207 L14.246,7.177 L11.402,3.5 Z"/>
</svg>
